packages/tokens/icons/backup/size32Px.svg

<svg viewBox="0 0 32 32" fill="none" xmlns="http://www.w3.org/2000/svg" width="1em" height="1em"><path d="M26.9099 13.4471L26.4229 13.5602L26.9099 13.4471ZM13.9981 5.38558L13.6588 5.75282C13.5607 5.66222 13.503 5.53617 13.4984 5.40275C13.4938 5.26932 13.5428 5.13961 13.6344 5.0425L13.9981 5.38558ZM16.2848 2.2326C16.4743 2.03172 16.7908 2.02248 16.9916 2.21196C17.1925 2.40144 17.2018 2.71789 17.0123 2.91877L16.2848 2.2326ZM17.1266 7.59553C17.3295 7.78293 17.342 8.09926 17.1546 8.30208C16.9672 8.5049 16.6508 8.5174 16.448 8.33L17.1266 7.59553ZM23.71 7.9317L23.3707 8.29894L23.71 7.9317ZM24.5625 23.9117C24.3751 24.1145 24.0587 24.127 23.8559 23.9396C23.6531 23.7522 23.6406 23.4358 23.828 23.233L24.5625 23.9117ZM13.6344 5.0425L16.2848 2.2326L17.0123 2.91877L14.3618 5.72866L13.6344 5.0425ZM14.3374 5.01834L17.1266 7.59553L16.448 8.33L13.6588 5.75282L14.3374 5.01834ZM26.4229 13.5602C25.9504 11.5258 24.8842 9.69732 23.3707 8.29894L24.0493 7.56446C25.7103 9.0991 26.8793 11.1048 27.397 13.334L26.4229 13.5602ZM23.3707 8.29894C21.0017 6.11013 17.2921 5.11456 14.114 5.87196L13.8822 4.8992C17.3876 4.0638 21.4379 5.15162 24.0493 7.56446L23.3707 8.29894ZM23.828 23.233C26.2189 20.6455 27.2108 16.9532 26.4229 13.5602L27.397 13.334C28.261 17.0546 27.1748 21.0845 24.5625 23.9117L23.828 23.233Z" fill="currentColor"/><path d="M5.08958 18.5529L5.57662 18.4398L5.08958 18.5529ZM18.0014 26.6144L18.3407 26.2472C18.4388 26.3378 18.4965 26.4638 18.5011 26.5973C18.5057 26.7307 18.4567 26.8604 18.3651 26.9575L18.0014 26.6144ZM15.7147 29.7674C15.5252 29.9683 15.2088 29.9775 15.0079 29.788C14.807 29.5986 14.7978 29.2821 14.9872 29.0812L15.7147 29.7674ZM14.8729 24.4045C14.6701 24.2171 14.6576 23.9007 14.845 23.6979C15.0324 23.4951 15.3487 23.4826 15.5515 23.67L14.8729 24.4045ZM8.28951 24.0683L8.62883 23.7011L8.28951 24.0683ZM7.43703 8.08833C7.62443 7.88551 7.94076 7.87302 8.14358 8.06042C8.3464 8.24782 8.35889 8.56416 8.17149 8.76697L7.43703 8.08833ZM18.3651 26.9575L15.7147 29.7674L14.9872 29.0812L17.6377 26.2713L18.3651 26.9575ZM17.6621 26.9817L14.8729 24.4045L15.5515 23.67L18.3407 26.2472L17.6621 26.9817ZM5.57662 18.4398C6.04906 20.4742 7.11535 22.3027 8.62883 23.7011L7.9502 24.4355C6.28925 22.9009 5.12023 20.8952 4.60254 18.666L5.57662 18.4398ZM8.62883 23.7011C10.9978 25.8899 14.7074 26.8854 17.8855 26.128L18.1173 27.1008C14.6119 27.9362 10.5616 26.8484 7.9502 24.4355L8.62883 23.7011ZM8.17149 8.76697C5.78058 11.3545 4.78866 15.0468 5.57662 18.4398L4.60254 18.666C3.73851 14.9454 4.82473 10.9155 7.43703 8.08833L8.17149 8.76697Z" fill="currentColor"/><path d="M14.5 11.5V18.5H18.5" stroke="currentColor" stroke-miterlimit="10" stroke-linecap="round" stroke-linejoin="round"/></svg>

<svg xmlns="http://www.w3.org/2000/svg" fill="none" viewBox="0 0 32 32" width="1em" height="1em"><path fill="currentColor" d="m26.91 13.447-.487.113.487-.113ZM13.998 5.386l-.34.367a.5.5 0 0 1-.024-.71l.364.343Zm2.287-3.153a.5.5 0 0 1 .727.686l-.727-.686Zm.842 5.363a.5.5 0 1 1-.679.734l.679-.734Zm6.583.336-.34.367.34-.367Zm.852 15.98a.5.5 0 0 1-.734-.679l.735.679ZM13.634 5.042l2.65-2.81.728.687-2.65 2.81-.728-.686Zm.703-.024 2.79 2.578-.679.734-2.79-2.577.68-.735Zm12.086 8.542A10.34 10.34 0 0 0 23.37 8.3l.678-.735a11.34 11.34 0 0 1 3.348 5.77l-.974.226ZM23.37 8.3C21 6.11 17.292 5.115 14.114 5.872l-.232-.973c3.506-.835 7.556.253 10.167 2.665l-.678.735Zm.457 14.934c2.39-2.588 3.383-6.28 2.595-9.673l.974-.226c.864 3.72-.222 7.75-2.834 10.578l-.735-.679ZM5.09 18.553l.487-.113-.487.113ZM18 26.614l.34-.367a.5.5 0 0 1 .024.71L18 26.614Zm-2.286 3.153a.5.5 0 1 1-.728-.686l.728.686Zm-.842-5.363a.5.5 0 0 1 .679-.734l-.68.734Zm-6.583-.336.339-.367-.34.367Zm-.853-15.98a.5.5 0 1 1 .734.679l-.734-.679Zm10.928 18.87-2.65 2.81-.728-.687 2.65-2.81.728.686Zm-.703.024-2.79-2.578.68-.734 2.789 2.577-.679.735ZM5.577 18.44a10.34 10.34 0 0 0 3.052 5.26l-.679.735a11.34 11.34 0 0 1-3.347-5.77l.974-.226Zm3.052 5.26c2.369 2.189 6.078 3.184 9.257 2.427l.231.973c-3.505.835-7.555-.253-10.167-2.665l.679-.735ZM8.17 8.767c-2.39 2.588-3.382 6.28-2.594 9.673l-.974.226c-.864-3.72.222-7.75 2.834-10.578l.734.679Z"/><path stroke="currentColor" stroke-linecap="round" stroke-linejoin="round" stroke-miterlimit="10" d="M14.5 11.5v7h4"/></svg>
